src/assets/format.svg

<?xml version="1.0" ?><svg height="48" viewBox="0 0 48 48" width="48" xmlns="http://www.w3.org/2000/svg"><path d="M6 42h36v-4h-36v4zm12-8h24v-4h-24v4zm-12-8h36v-4h-36v4zm12-8h24v-4h-24v4zm-12-12v4h36v-4h-36z"/><path d="M0 0h48v48h-48z" fill="none"/></svg>

<svg xmlns="http://www.w3.org/2000/svg" height="48" width="48" viewBox="0 0 48 48">
 <path d="M6 42h36v-4H6v4zm12-8h24v-4H18v4zM6 26h36v-4H6v4zm12-8h24v-4H18v4zM6 6v4h36V6H6z"/>
 <path d="M0 0h48v48H0z" fill="none"/>
</svg>
